X:253
T:On doibt bien aymer l'oysellet (Chanson 12)
S:from bay12.MID
C:Manuscript de Bayeux (fin XVe)
R:Chanson
M:4/4
L:1/8
Q:1/4=120
%beats in anacrusis = 2
K:G 
V:1
G | B3/2c/2 de2<d2c | BA/2G/2 A2 G2zG | d3d e2 e2 | 
dc/2B/2 c2 B4 | e2 ee2<d2c | BA/2G/2 AA G2zG | B3/2c/2 de2<d2c | 
BA/2G/2 A2 G4- | G4z2zG | B3/2c/2 de d2 g2 | fe/2d/2 e2 d4 | 
e2 ee2<d2c | BA/2G/2 A2 G2zG | B3/2c/2 de d2 g2 | fe/2d/2 e2 d4 | 
e2 ee2<d2c | BA/2G/2 A2 G4- | G4 |]
V:2
G | B3/2c/2 de dd/2d/2 dc | BA/2G/2 AA GG/2G/2 GG | dd/2d/2 dd ee/2e/2 ee/2e/2 | 
dc/2B/2 cc BB/2B/2 BB | ee/2e/2 ee dd/2d/2 dc | BA/2G/2 AA GG/2G/2 GG | B3/2c/2 de dd/2d/2 dc | 
BA/2G/2 AA GG/2G/2 GG | GG/2G/2 GG GG/2G/2 GG | B3/2c/2 de dd/2d/2 gg/2g/2 | fe/2d/2 ee dd/2d/2 dd | 
ee/2e/2 ee dd/2d/2 dc | BA/2G/2 AA GG/2G/2 GG | BB/2c/2 de dd/2d/2 gg/2g/2 | fe/2d/2 ee dd/2d/2 dd | 
ee/2e/2 ee dd/2d/2 dc | BA/2G/2 AA GG/2G/2 GG | G4 |]





